X:155
T:score236
L:1/16
Q:1/4=96
M:4/4
I:linebreak $
K:Bb
 !trill(!TF4 | G2F2 G4- GABc defg | a2g2 a4 z4 !trill(!TA4 |$ B2A2 B4- Bcde fgab | %4
 c'2b2 c'4 z4 !trill(!Tf4 | g2f2 g4- gfed cBAG |$ A4 F4- F2GA B2AG | F4 GAB2 D4 !trill(!TC4 | %8
 B,12 z4 |] %9
